X:1006
T:Mid Lothian
S:RSCDS Book 7 (1931)
Z:Nigel Gatherer
L:1/8
M:4/4
K:D
B | ADFA GBEG | FDAF EB,B,B | ADFA GBEF | FAEG FDDB |
ADFA GBEG | FDAF EB,B,G | FAd=c BGed | cAag fdd ||
f/g/ | afdf gbeg | afed cecA | a/g/f/e/ fd gbeg | faeg fddg |
a/g/f/e/ fd gbeg | fafd cecA | BdAd GdFd | EBA>G FDD |]
<end>
<start>
